X:108
M:6/8
L:1/8
K:F
|: ceg gec | fed ^c3 | def gab | gfe d2c | Acf cBA | BdF E2 [Cc] | FAc Acf | ABG F3 :|

